assets/images/storage-arrow-1.svg

<svg width="247" height="237" viewBox="0 0 247 237" fill="none" xmlns="http://www.w3.org/2000/svg">
<path d="M241.326 11.0091C240.075 -0.248213 211.716 7.43635 206.203 9.19042C169.982 20.7153 136.217 41.1263 111.521 70.342C76.251 112.066 60.328 165.225 78.5578 217.31C79.1478 218.996 83.3999 226.371 79.4671 223.562C71.8071 218.091 63.2263 214.115 56.3932 207.535C52.5335 203.819 9.97038 171.866 6.49437 179.687C-0.548434 195.534 45.2928 216.249 53.7789 220.607C61.0465 224.339 69.7266 226.235 76.5118 230.382C83.8138 234.844 84.4475 224.182 86.7416 218.788C102.179 182.489 132.099 146.622 163.579 123.537" stroke="#D9315A" stroke-width="10" stroke-linecap="round"/>
</svg>

<svg width="247" height="237" viewBox="0 0 247 237" fill="none" xmlns="http://www.w3.org/2000/svg"><path d="M241.326 11.01c-1.251-11.258-29.61-3.574-35.123-1.82-36.221 11.525-69.986 31.936-94.682 61.152-35.27 41.724-51.193 94.883-32.963 146.968.59 1.686 4.842 9.061.91 6.252-7.66-5.471-16.242-9.447-23.075-16.027-3.86-3.716-46.423-35.669-49.899-27.848-7.042 15.847 38.799 36.562 47.285 40.92 7.267 3.732 15.948 5.628 22.733 9.775 7.302 4.462 7.936-6.2 10.23-11.594 15.437-36.299 45.357-72.166 76.837-95.251" stroke="#D9315A" stroke-width="10" stroke-linecap="round"/></svg>
